X: 1
T: the Clueless Fifer
P: piffero primo a0669
O: Dan Moylan
%R: jig
F: http://ancients.sudburymuster.org/mus/sng/pdf/cluelessC0.pdf
Z: 2020 John Chambers <jc:trillian.mit.edu>
M: 6/8
L: 1/8
K: G
(3D/E/F/ |\
GDG B2(3d/e/f/ | gfe d2e/f/ | gdB afd | ecA F2(3D/E/F/ |\
GDG B2(3d/e/f/ | gfe d2e/f/ | gbg afd | (3B/c/d/ ef g2 :|
|: b/a/ |\
gee bag | fdf a2e/f/ | gee dcB | AFE D2(3D/E/F/ |\
GDG B2(3d/e/f/ | gfe d2e/f/ | gbg afd | (3B/c/d/ ef g2 :|
